icons/desktop/16/svg/globe-slash-16.svg

<svg width="16" height="16" viewBox="0 0 16 16" fill="none" xmlns="http://www.w3.org/2000/svg">
<g clip-path="url(#clip0_8069_32514)">
<path fill-rule="evenodd" clip-rule="evenodd" d="M0.219727 0.219727C0.51262 -0.0731667 0.98738 -0.0731667 1.28027 0.219727L2.90039 1.83984C2.90393 1.8369 2.90758 1.83399 2.91113 1.83105L3.99023 2.91016C3.98663 2.91301 3.98309 2.91608 3.97949 2.91895L4.88672 3.82617C4.88844 3.82217 4.89085 3.81846 4.89258 3.81445L6.04785 4.96875C6.04624 4.97325 6.04458 4.97792 6.04297 4.98242L7.35254 6.29199C7.35869 6.29185 7.36494 6.29213 7.37109 6.29199L8.86816 7.78906C8.86171 7.78885 8.85509 7.78829 8.84863 7.78809L10.3896 9.3291C10.3904 9.32418 10.3918 9.31937 10.3926 9.31445L11.6689 10.5898C11.6678 10.5945 11.6652 10.5989 11.6641 10.6035L13.0869 12.0264C13.0894 12.0232 13.0932 12.0208 13.0957 12.0176L14.167 13.0898C14.1645 13.0928 14.1617 13.0956 14.1592 13.0986L15.7803 14.7197C16.0732 15.0126 16.0732 15.4874 15.7803 15.7803C15.4874 16.0732 15.0126 16.0732 14.7197 15.7803L13.0967 14.1572C11.7115 15.3059 9.93579 16 8 16C3.589 16 3.36248e-06 12.411 0 8C0 6.06454 0.692984 4.28838 1.8418 2.90234L0.219727 1.28027C-0.0731667 0.98738 -0.0731667 0.51262 0.219727 0.219727ZM6.74316 7.80371C6.33061 7.82239 5.91816 7.84732 5.50684 7.88672C5.50584 7.92472 5.50098 7.96102 5.50098 7.99902C5.50098 10.319 6.40999 12.541 8.00098 14.209C8.87742 13.2903 9.54031 12.2017 9.96191 11.0225L6.74316 7.80371ZM1.5293 8.58008C1.76434 11.218 3.57952 13.4075 6.02148 14.1895C4.73454 12.4255 4.01799 10.2852 4.00293 8.07227C3.17114 8.20124 2.3461 8.37115 1.5293 8.58008ZM11.1211 12.1816C10.815 12.8884 10.4349 13.5636 9.97852 14.1895C10.7319 13.9482 11.4236 13.5706 12.0283 13.0889L11.1211 12.1816ZM2.91699 3.97754C2.2284 4.84116 1.75488 5.88235 1.58203 7.02441C2.42003 6.82341 3.26419 6.65127 4.11719 6.53027C4.17135 6.1499 4.24849 5.77459 4.34473 5.40527L2.91699 3.97754Z" fill="black"/>
<path fill-rule="evenodd" clip-rule="evenodd" d="M8 0C12.411 0 16 3.589 16 8C16 9.476 15.5906 10.8559 14.8906 12.0439L13.7783 10.9307C14.1452 10.2108 14.3957 9.42388 14.4707 8.58105C13.6548 8.3711 12.8289 8.20025 11.9971 8.07227C11.9951 8.41316 11.9696 8.75101 11.9346 9.08691L9.16309 6.31543C9.556 6.33242 9.94891 6.33225 10.3408 6.36523C10.0228 4.65123 9.21298 3.06004 8.00098 1.79004C7.44 2.37802 6.97471 3.04109 6.59473 3.74707L5.49121 2.64258C5.65814 2.35971 5.82755 2.07645 6.02246 1.80957C5.68861 1.91652 5.37037 2.05793 5.0625 2.21484L3.95605 1.10938C5.14404 0.409384 6.52402 1.00419e-05 8 0ZM9.97949 1.81055C10.9925 3.19955 11.6408 4.82423 11.8838 6.53223C12.7358 6.65323 13.581 6.82537 14.4189 7.02637C14.047 4.56746 12.2984 2.55362 9.97949 1.81055Z" fill="black"/>
</g>
<defs>
<clipPath id="clip0_8069_32514">
<rect width="16" height="16" fill="white"/>
</clipPath>
</defs>
</svg>

<!-- This Source Code Form is subject to the terms of the Mozilla Public
   - License, v. 2.0. If a copy of the MPL was not distributed with this
   - file, You can obtain one at http://mozilla.org/MPL/2.0/. -->
<svg xmlns="http://www.w3.org/2000/svg" width="16" height="16" fill="context-fill" fill-opacity="context-fill-opacity" viewBox="0 0 16 16">
    <g fill-rule="evenodd" clip-path="url(#clip0_8069_32514)" clip-rule="evenodd">
        <path d="M.22.22a.75.75 0 0 1 1.06 0L2.9 1.84l.011-.009 1.08 1.08-.012.008.908.907.006-.012L6.048 4.97l-.005.013 1.31 1.31h.018l1.497 1.497h-.02l1.542 1.54.003-.015 1.276 1.276-.005.014 1.423 1.422.009-.008 1.071 1.072-.008.009 1.621 1.62a.75.75 0 1 1-1.06 1.061l-1.623-1.623A7.96 7.96 0 0 1 8 16c-4.411 0-8-3.589-8-8 0-1.935.693-3.712 1.842-5.098L.22 1.28a.75.75 0 0 1 0-1.06m6.523 7.584c-.412.018-.825.043-1.236.083-.001.038-.006.074-.006.112a9 9 0 0 0 2.5 6.21 9 9 0 0 0 1.96-3.186zM1.53 8.58a6.51 6.51 0 0 0 4.492 5.61 10.5 10.5 0 0 1-2.018-6.118q-1.248.196-2.474.508m9.592 3.602A10.5 10.5 0 0 1 9.98 14.19a6.5 6.5 0 0 0 2.05-1.101zM2.917 3.978a6.4 6.4 0 0 0-1.335 3.046 27 27 0 0 1 2.535-.494q.082-.57.228-1.125zM8 0c4.411 0 8 3.589 8 8a7.94 7.94 0 0 1-1.11 4.044l-1.112-1.113c.367-.72.618-1.507.693-2.35q-1.225-.315-2.474-.509c-.002.341-.027.679-.062 1.015L9.163 6.315c.393.017.786.017 1.178.05A9 9 0 0 0 8 1.79a9 9 0 0 0-1.406 1.957L5.49 2.643c.167-.283.337-.567.531-.833a6.5 6.5 0 0 0-.96.405L3.957 1.109A7.94 7.94 0 0 1 8 0m1.98 1.81a10.5 10.5 0 0 1 1.904 4.722c.852.121 1.697.293 2.535.494a6.51 6.51 0 0 0-4.44-5.215" />
    </g>
</svg>
